X:1
T:O Death rock me to sleep
T:O Death Rock Me To Sleep
T:O Death Rock Me to Sleep Anne Boleyn 
T:Attributed to Anne Boleyn /Anna Bolena / (1501-1536) arr. by Felix Scharpf 2020 
T:This song, attributed to Anne Boleyn as she was awaiting execution in the Tower of London, was transcribed by Arnold Dolmetsch in 1898 from a lute tablature version published in 1611. The current arrangement is based on a version published in Dolmetch's book "Select English Songs and Dialogues of the 16th and 17th Centuries" (Boosey, 1898) 
T:arrangement  for Alto Flute, Cello, Piano
T:twoflutes 2020 / Felix Scharpf / https://commons.wikimedia.org/wiki/File:Anneboleyn2.jpg
T:twoflutes 2020 / Felix Scharpf / https://commons.wikimedia.org/wiki/File:Anneboleyn2.jpg
T:twoflutes 2020 / Felix Scharpf / https://commons.wikimedia.org/wiki/File:Anneboleyn2.jpg
T:twoflutes 2020 / Felix Scharpf / https://commons.wikimedia.org/wiki/File:Anneboleyn2.jpg
T:twoflutes 2020 / Felix Scharpf / https://commons.wikimedia.org/wiki/File:Anneboleyn2.jpg
T:twoflutes 2020 / Felix Scharpf / https://commons.wikimedia.org/wiki/File:Anneboleyn2.jpg
C:Anne Boleyn (1501-1536)
Z:twoflutes 2020 / Felix Scharpf / https://commons.wikimedia.org/wiki/File:Anneboleyn2.jpg
%%score [ 1 2 ] { ( 3 6 ) | ( 4 5 ) }
L:1/8
Q:1/2=80
M:3/2
K:F
V:1 treble transpose=-5 nm="Alto Flute" snm="Afl."
V:2 bass nm="Violoncello" snm="Vc."
V:3 treble nm="Piano" snm="Pn."
V:6 treble 
V:4 bass 
V:5 bass 
V:1
[K:Bb] z12 | z12 | z12 | z12 | z12 | z8 z4 | z8!p! g4 | g8 z4 | z4 g4 f4 | e4 d4 d4 | c8 z4 | %11
w: ||||||O|Death,|O Death|rock me a-|sleep,|
 g8 f4 | e4 d4 c4 | d12 | z12 |!p! d8!>(! d4 | d4 d4 d4 | d8 d4!>)! |!pp! d12[Q:1/2=50] | %19
w: Bring me|to qui- et|rest,||Let pass|my wea- ry|guilt- less|ghost,|
[Q:1/2=80] z4 z4!p! d4 | e6 c2 d4 | (e4 d8) | c8 z4 | z12 | c4 e4 d4 | c6 B2 B4 | z12 | %27
w: out|of my woe-|full *|breast.||Troll on the|pass- ing bell,||
!p! e6!>(! c2 d4 | c6 B2!>)!!pp! B4 | z12 | z4!p! g4 f4 | e6 c2 (d4 | c8) B4 | z12 | %34
w: Ring out the|dole- full knell,||Let the|sound my death|tell, *||
 z4!p! g4!>(! f4 | e6 c2 d4 | (c8!>)!!pp! B4) | z12 | e6 c2 d4 | c8 z4 |"_dim." e6 c2 d4 | e4 d8 | %42
w: Let the|sound my death|tell: *||For I must|dye,|There is no|re- me-|
 c8 z4 | z12 | z8 c4 | c8 e4 | c8 z4 | z8!p! c4 |"_dim." c8 e4 | c8 e4 | c8 e4 |!pp! c8"_dim." e4 | %52
w: dye,||For|now I|dye,|For|now I|dye, I|dye, I|dye, I|
 c8 c4 | c8 c4 |!ppp! c8[Q:1/2=30] z4[Q:1/4=70][Q:1/4=60][Q:1/4=50] |] %55
w: dye, I|dye, I|dye.|
V:2
 z12 |!p!"_dim." (G,4 B,4 A,4 | G,8) z4 | z12 |!p! (G,4"_dim." B,4 A,4 | G,8) z4 | z12 | %7
!p! (G,4"_dim." B,4 A,4 | G,4) (D4 C4 | B,4 A,4) A,4 |!p! (G,4"_dim." B,4 A,4 | G,8) (C4 | %12
 B,4 A,4 G,4 | A,4) z8 | z12 |!p! (D4!>(! ^C4 D4) | (D4 ^C4 D4) | (D4 A,4 D4!>)! |!pp! ^C4) z4 z4 | %19
!p! (G,4"_dim." B,4 A,4 | G,6) G,2 (A,4 | B,4 A,4) z4 |!p! (G,4"_dim." B,4 A,4 | G,4) z4 z4 | z12 | %25
!pp!"_dim." (G,4 B,4 A,4 |!pp! G,4) (B,4 A,4 |!pp! G,4)"_cresc." (B,4 A,4 | G,4) (B,4 A,4 | %29
 G,4) (B,4 A,4 |!p! G,4) (B,4"_dim." A,4 | G,4) z8 | G,4 (B,4 A,4 | G,4) (B,4 A,4 | G,4) (B,4 A,4 | %35
 G,4) (B,4 A,4 | G,4) (B,4 A,4 | G,4) (B,4 A,4 | G,4) (B,4 A,4 | G,4) (B,4 A,4 | G,4) (B,4 A,4 | %41
 G,4 A,8) | G,8 z4 | z12 | z8 G,4 | (G,8 B,4) | G,8 z4 | z8!p! G,4 |"_dim." (G,8 B,4) | (G,8 B,4) | %50
 (G,8 B,4) |!pp! (G,8"_dim." B,4) | G,8 G,4 | G,8 G,4 |!ppp! G,8 z4 |] %55
V:3
 z12 | z12 |!p! (G4 B4 A4) | [DG]8 [D^F]4 |!pp! ([DG]8 c4) | (B4 G4 [CA]4) | ([DG]4 [DG]4 ^F4) | %7
 ([DG]4 d4 c4 | B4) (D4 F4 | G4 ^F4 F4 | [DG]4) (d4 c4 | B4) (B4 F4 | G4 ^F4 G4 | ^F4 =F4 E4) | %14
 (D4 D4 ^C4 | D4 E4 D4) | (A,4 ^C4 D4 | F4 E4 D2 F2 | A8- !fermata![EA]4) | (B4 G4 A4 | D4 G4 ^F4 | %21
 G4 G4 ^F4) | (G4 D4 C4 | [DG]4 _B4 [CA]4) | (G4 G4 ^F4 | G6 F2 c4 | B6 G2 A4) | D6 (d2 c4 | %28
 B6 D2 F4 | [DG]4) (d4 c4 | B6 G2 A4 | B4) D4 C4 | z4 z4 z4 | (B6 G2 [EA]4 | B6 G2 A4) | %35
 (D4 z4 z4 | B,4) (d4 c4 | B6 G2 A4) | (D6 G2 A4 | B6 G2) A4 | (D4 G4 ^F4 | G4 G4 ^F4 | G8) (^F4 | %43
 [B,G]4 _E4 D4 | C8) (D4 | C8 D4 | C8) (D4 | C4 _E4)!p! (D4 |"_dim." C8 D4) | (C4 _E4 D4 | %50
 C4) (_E4 D4 | C4)!pp! (_E4"_dim." D4 | C4) (_E4 D4 | C4) (_E4 C4 | G8!pp! !fermata![DG]4) |] %55
V:4
!p! (G,4 B,4 A,4 | G,8) ^F,4 | (G,4 D,4 ^F,4) | (G,4 B,4 A,4) |!pp! (G,8 F,4 | G,6 E,2) (F,4 | %6
 G,4 D,8) | (G,4 z4 F,4 | G,4) (G,4 A,4 | G,,4) A,4 A,4 | (G,4 z4 F,4 | G,8) (A,4 | G,4 A,4 B,4) | %13
 A,4 z4 z4 | (D,4 F,4 E,4 | D,4) (^C,4 F,4 | F,4 E,4) F,4 | (A,8 [D,F,]4 | %18
 A,,8) (!fermata![E,A,]4 | G,4 D,4) A,4 | (G,4 D,4 D,4 | G,4 [D,A,]8) | (G,8 ^F,4 | G,4 z2 z2 z4 | %24
 B,6 G,2 A,4) | G,4 D,4 F,4 | (G,4 D,4 ^F,4 | G,4) (D,4 F,4 | G,4) (D,4 F,4 | G,4) (D,4 [F,A,]4 | %30
 G,8) ([^F,A,]4 | G,4 G,4 ^F,4) | (G,4 G,4 A,4) | (G,8 A,4 | G,4) (D,4 ^F,4 | G,8) (^F,4 | %36
 G,8) (A,4 | G,4) (D,4 ^F,4 | G,4) (D,4 ^F,4 | G,4) D,4 ^F,4 | (B,6 G,2 A,4 | G,4 [D,A,]8) | %42
 (G,4 B,4 A,4 | G,4 z4 z4 | G,8) (=B,4 | G,8) z4 | (G,8 z4 | G,4) z4!p!!p! =B,4 |"_dim." (G,8 z4 | %49
 [_E,G,]4) z4 (G,4 | [C,G,]8 G,4 |!pp! [C,G,]8)"_dim." (G,4 | G,8 G,4 | [C,G,]8) (G,4 | %54
 z4 G,2 D,2-!pp! !fermata![D,G,]4) |] %55
V:5
 x12 | (G,,4 B,,4) A,,4 | G,,12 | x8 D,4 | (G,,4 B,,4 A,,4 | G,,8) (A,,4 | B,,2 C,2) x8 | %7
 (G,,4 B,,4 A,,4 | G,,4) (B,,4 A,,4) | x4 D,4 D,4 | (G,,4 B,,4 A,,4 | G,,4) (B,,4 A,,4 | %12
 B,,4 D,4 G,,4) | D,4 (D,4 ^C,4) | x8 A,,4 | x4 (A,,4 D,4 | D,4 A,,4) D,4 | (D,4 A,,4 D,4 | %18
 x4 A,4) (A,,4 | G,,4 B,,4) F,4 | (B,,12 | G,,4) x8 | (G,,4 B,,4 A,,4 | G,,4 G,2 E,2 F,4 | %24
 G,6 x2 D,4) | G,,4 B,,4 A,,4 | (G,,4 B,,4 A,,4 | G,,4) (B,,4 A,,4 | G,,4) (B,,4 A,,4 | %29
 G,,4) (B,,4 A,,4 | G,,4) (B,,4 A,,4 | B,,4 B,,4 A,,4) | (G,,4 B,,4 A,,4) | (G,,4 B,,4 A,,4 | %34
 G,,4) (B,,4 A,,4 | G,,4) (B,,4 A,,4 | G,,4) (B,,4 A,,4 | G,,4) (B,,4 A,,4 | G,,4) (B,,4 A,,4 | %39
 G,,4) B,,4 A,,4 | ([G,,G,]4 D,4 D,4 | G,,4) x8 | (G,4 z4 D,4 | _E,4 C,4 G,4 | C,4 C,4) (G,4 | %45
 C,4 C,4 G,4) | (C,4 C,4 G,4 | _E,4 C,4) G,4 | (C,4 C,4 G,4 | x4 C,4) z4 | x12 | x12 | %52
 (C,4 C,4 G,,4) | x8 (C,4 | G,,8 G,,4) |] %55
V:6
 x12 | x12 | D12 | x12 | x12 | (D8 C4) | B,4 A,4 ^F4 | (=B,4 z8 | D4) (B,4 C4 | B,4 D4 D2 C2 | %10
 =B,4) z8 | D4 (D4 C4 | D4 D4 D4 | D4) z8 | (A,12 | A,4 A,4 A,4) | x4 (A,4 A,4 | D4 C4 A,4 | %18
 z2 E^C- x4 C4) | (D8 C4 | B,6 G,2 A,4 | [B,D]4 D8) | (D4 x8 | =B,4) z8 | x4 (D4 D4 | D6 F2 F4 | %26
 D8 C4) | B,4 z4 (F4 | D6 x2 C4 | B,4) (D2 F2 F4 | D8 z4 | D4) x8 | B,4 (d4 c4 | D4 D4 C4 | %34
 D8 A,4) | (B,4 D4 C4) | x12 | (D8 C4) | (B,6 x2 C4 | D8) C4 | x12 | (D4 D8 | D8) x4 | %43
 x4 (C4 =B,4) | x12 | x12 | x8 =B,4 | x12 | x12 | x4 (C4 D4) | x4 (C4 D4) | x4 (C4 D4) | %52
 x4 (C4 =B,4 | C4) (C4 C4 | z2 D=B, z4 B,4) |] %55

